X:29
T:GUEDENNES DE LANGUEUX
Z: Yves BELOTTEAU
M:4/4
L:1/8
Q:1/4=60
K:C
|gg/2g/2ga gfeg|fedg fed2|gg/2g/2ga gfeg|fed2 g2c2|
cd/2e/2dc Bcde|fedg fed2|cd/2e/2dc Bcde|fed2 g2c2|
